brandFactory_export/2.Regular/Promociones_Ofertas_2Regular.svg

<?xml version="1.0" encoding="UTF-8"?>
<svg width="24px" height="24px" viewBox="0 0 24 24" version="1.1" xmlns="http://www.w3.org/2000/svg" xmlns:xlink="http://www.w3.org/1999/xlink">
    <title>2.Regular/Promociones_Ofertas_2Regular</title>
    <g id="Symbols" stroke="none" stroke-width="1" fill="none" fill-rule="evenodd">
        <g id="2.Regular/Promociones_Ofertas_2Regular" fill="#5CB615" fill-rule="nonzero">
            <path d="M11.7815126,0.0100840336 C12.4235294,0.0100840336 12.8268908,0.527731092 12.9579832,0.695798319 C13.189916,0.994957983 13.394958,1.36470588 13.589916,1.7210084 C13.7546218,2.02016807 14.0537815,2.56470588 14.2218487,2.68907563 C14.4369748,2.67226891 14.9915966,2.33613445 15.297479,2.1512605 C16.1042017,1.66386555 16.9378151,1.15966387 17.6672269,1.58319328 C18.4067227,2.01008403 18.3831933,2.99159664 18.3663866,3.94285714 C18.3596639,4.29243697 18.3462185,4.93109244 18.4336134,5.12268908 C18.6252101,5.21008403 19.2638655,5.19663866 19.6168067,5.18991597 L19.9727022,5.18383666 C20.8014706,5.17657563 21.6,5.24201681 21.9764706,5.88907563 C22.4,6.61848739 21.8957983,7.45210084 21.4084034,8.25882353 C21.2235294,8.56470588 20.887395,9.12268908 20.8705882,9.33445378 C20.994958,9.50252101 21.5394958,9.80168067 21.8386555,9.96638655 C22.194958,10.1613445 22.5647059,10.3663866 22.8638655,10.5983193 C23.5495798,11.1327731 23.5495798,11.6168067 23.5495798,11.7747899 C23.5495798,12.4168067 23.0319328,12.8201681 22.8638655,12.9512605 C22.5647059,13.1831933 22.194958,13.3882353 21.8386555,13.5831933 C21.5394958,13.7478992 20.994958,14.0470588 20.8705882,14.2151261 C20.887395,14.4302521 21.2235294,14.9848739 21.4084034,15.2907563 L21.5901195,15.5942818 C22.0073529,16.3042542 22.3470588,17.0222689 21.9764706,17.6605042 C21.5495798,18.4 20.5680672,18.3764706 19.6168067,18.3596639 C19.2672269,18.3529412 18.6252101,18.3394958 18.4336134,18.4268908 C18.3462185,18.6184874 18.3596639,19.2571429 18.3663866,19.610084 C18.3865546,20.5579832 18.4067227,21.5394958 17.6672269,21.9697479 C16.9378151,22.3932773 16.1042017,21.8890756 15.297479,21.405042 C14.9915966,21.2201681 14.4336134,20.8840336 14.2218487,20.8672269 C14.0537815,20.9915966 13.7546218,21.5361345 13.589916,21.8352941 C13.394958,22.1915966 13.189916,22.5613445 12.9579832,22.8605042 C12.4235294,23.5462185 11.9394958,23.5462185 11.7815126,23.5462185 C11.1394958,23.5462185 10.7361345,23.0285714 10.605042,22.8605042 C10.3731092,22.5613445 10.1680672,22.1915966 9.97310924,21.8352941 C9.80840336,21.5361345 9.5092437,20.9915966 9.34117647,20.8672269 C9.12605042,20.8840336 8.57142857,21.2201681 8.26554622,21.405042 C7.45882353,21.892437 6.62521008,22.3966387 5.89579832,21.9731092 C5.15630252,21.5462185 5.17647059,20.5647059 5.19663866,19.6134454 C5.20336134,19.2638655 5.21680672,18.6218487 5.12941176,18.4302521 C4.93781513,18.3428571 4.29915966,18.3563025 3.94621849,18.3630252 C2.99831933,18.3831933 2.01680672,18.4033613 1.58655462,17.6638655 C1.1697479,16.9344538 1.67394958,16.1008403 2.15798319,15.2941176 C2.34285714,14.9882353 2.6789916,14.4302521 2.69579832,14.2184874 C2.57142857,14.0504202 2.02689076,13.7512605 1.72773109,13.5865546 C1.37142857,13.3915966 1.00168067,13.1865546 0.702521008,12.9546218 C0.0168067225,12.4201681 0.0168067225,11.9361345 0.0168067225,11.7781513 C0.0168067225,11.1361345 0.534453781,10.7327731 0.702521008,10.6016807 C1.00168067,10.3697479 1.37142857,10.1647059 1.72773109,9.9697479 C2.02689076,9.80504202 2.57142857,9.50588235 2.69579832,9.33781513 C2.6789916,9.12268908 2.34285714,8.56806723 2.15798319,8.26218487 C1.67058824,7.45546218 1.16638655,6.62184874 1.58991597,5.89243697 C2.01680672,5.15294118 2.99831933,5.17310924 3.94957983,5.19327731 C4.29915966,5.2 4.93781513,5.21344538 5.12941176,5.12605042 C5.21680672,4.93445378 5.20336134,4.29579832 5.19663866,3.94285714 L5.19055935,3.58696166 C5.18329832,2.75819328 5.2487395,1.95966387 5.89579832,1.58319328 C6.62521008,1.15966387 7.45882353,1.66386555 8.26554622,2.1512605 C8.57142857,2.33613445 9.12941176,2.67226891 9.34117647,2.68907563 C9.5092437,2.56470588 9.80840336,2.02016807 9.97310924,1.7210084 C10.1680672,1.36470588 10.3731092,0.994957983 10.605042,0.695798319 C11.1394958,0.0100840336 11.6235294,0.0100840336 11.7815126,0.0100840336 Z M11.7781513,1.39495798 C11.5932773,1.56302521 11.3109244,2.08403361 11.1495798,2.37647059 C10.7394958,3.11932773 10.3563025,3.82184874 9.69411765,4 C9.01176471,4.18151261 8.2789916,3.73781513 7.5697479,3.31092437 C7.30084034,3.14957983 6.8302521,2.86386555 6.58823529,2.79663866 C6.52436975,3.04201681 6.53445378,3.60336134 6.54117647,3.92268908 C6.55798319,4.78319328 6.57815126,5.59327731 6.08403361,6.08739496 C5.58991597,6.58151261 4.77983193,6.56134454 3.91932773,6.54453782 C3.6,6.53781513 3.03865546,6.52436975 2.79327731,6.59159664 C2.8605042,6.83361345 3.14621849,7.30420168 3.30756302,7.57310924 C3.73781513,8.28235294 4.17815126,9.01512605 3.99663866,9.69747899 C3.81848739,10.3596639 3.11596639,10.7462185 2.37310924,11.1529412 C2.08067227,11.3142857 1.56302521,11.5966387 1.39159664,11.7815126 C1.55966387,11.9663866 2.08067227,12.2487395 2.37310924,12.410084 C3.11596639,12.8201681 3.81848739,13.2033613 3.99663866,13.8655462 C4.17815126,14.5478992 3.73445378,15.2806723 3.30756302,15.989916 C3.14621849,16.2588235 2.8605042,16.7294118 2.79327731,16.9714286 C3.03865546,17.0352941 3.6,17.0252101 3.91932773,17.0184874 C4.77983193,17.0016807 5.58991597,16.9815126 6.08403361,17.4756303 C6.57815126,17.9697479 6.55798319,18.7798319 6.54117647,19.6403361 C6.53445378,19.9596639 6.5210084,20.5210084 6.58823529,20.7663866 C6.8302521,20.6991597 7.30084034,20.4134454 7.5697479,20.2521008 C8.16806723,19.8890756 8.77983193,19.5193277 9.36470588,19.5193277 C9.47563025,19.5193277 9.58655462,19.5327731 9.69411765,19.5630252 C10.3563025,19.7411765 10.7428571,20.4436975 11.1495798,21.1865546 C11.3109244,21.4789916 11.5966387,22 11.7781513,22.1680672 C11.9630252,22 12.2453782,21.4789916 12.4067227,21.1865546 C12.8168067,20.4436975 13.2,19.7411765 13.8621849,19.5630252 C14.5445378,19.3815126 15.2773109,19.8252101 15.9865546,20.2521008 C16.2554622,20.4134454 16.7260504,20.6991597 16.9680672,20.7663866 C17.0319328,20.5210084 17.0218487,19.9596639 17.0151261,19.6403361 C16.9983193,18.7798319 16.9781513,17.9697479 17.4722689,17.4756303 C17.9663866,16.9815126 18.7764706,17.0016807 19.6369748,17.0184874 C19.9563025,17.0252101 20.5176471,17.0386555 20.7630252,16.9714286 C20.6957983,16.7294118 20.410084,16.2588235 20.2487395,15.989916 C19.8184874,15.2806723 19.3781513,14.5478992 19.5596639,13.8655462 C19.7378151,13.2033613 20.4403361,12.8168067 21.1831933,12.410084 C21.4756303,12.2487395 21.9966387,11.9630252 22.1647059,11.7815126 C21.9966387,11.5966387 21.4756303,11.3142857 21.1831933,11.1529412 C20.4403361,10.7428571 19.7378151,10.3596639 19.5596639,9.69747899 C19.3781513,9.01512605 19.8218487,8.28235294 20.2487395,7.57310924 C20.410084,7.30420168 20.6957983,6.83361345 20.7630252,6.59159664 C20.5176471,6.52773109 19.9563025,6.53781513 19.6369748,6.54453782 C18.7764706,6.56134454 17.9663866,6.58151261 17.4722689,6.08739496 C16.9781513,5.59327731 16.9983193,4.78319328 17.0151261,3.92268908 C17.0218487,3.60336134 17.0352941,3.04201681 16.9680672,2.79663866 C16.7260504,2.86386555 16.2554622,3.14957983 15.9865546,3.31092437 C15.2773109,3.74117647 14.5445378,4.18151261 13.8621849,4 C13.2,3.82184874 12.8134454,3.11932773 12.4067227,2.37647059 C12.2453782,2.08403361 11.9596639,1.56302521 11.7781513,1.39495798 Z M16.2621849,6.05042017 C16.5546218,6.2789916 16.605042,6.70252101 16.3764706,6.99495798 L8.23865546,17.3915966 C8.11092437,17.5563025 7.91596639,17.6504202 7.70756303,17.6504202 C7.33781513,17.6504202 7.03529412,17.3478992 7.03529412,16.9781513 C7.03529412,16.8268908 7.08571429,16.6823529 7.17983193,16.5647059 L15.3176471,6.16470588 C15.5462185,5.87226891 15.9697479,5.82184874 16.2621849,6.05042017 Z M14.5747899,12.8 C15.9865546,12.8 16.8268908,13.6403361 16.8268908,15.0521008 C16.8268908,16.4638655 15.9831933,17.3042017 14.5747899,17.3042017 C13.1663866,17.3042017 12.3226891,16.4638655 12.3226891,15.0521008 C12.3226891,13.6403361 13.1630252,12.8 14.5747899,12.8 Z M14.5747899,14.1478992 C13.9058824,14.1478992 13.6672269,14.3831933 13.6672269,15.0554622 C13.6672269,15.7277311 13.9058824,15.9630252 14.5747899,15.9630252 C15.2436975,15.9630252 15.4823529,15.7277311 15.4823529,15.0554622 C15.4823529,14.3831933 15.2436975,14.1478992 14.5747899,14.1478992 Z M8.97815126,6.24537815 C10.389916,6.24537815 11.2302521,7.08571429 11.2302521,8.49747899 C11.2302521,9.9092437 10.389916,10.7495798 8.97815126,10.7495798 C7.5697479,10.7495798 6.72605042,9.9092437 6.72605042,8.49747899 C6.72605042,7.08571429 7.56638655,6.24537815 8.97815126,6.24537815 Z M8.97815126,7.59327731 C8.3092437,7.59327731 8.07058824,7.83193277 8.07058824,8.50084034 C8.07058824,9.1697479 8.3092437,9.40840336 8.97815126,9.40840336 C9.64705882,9.40840336 9.88571429,9.17310924 9.88571429,8.50084034 C9.88571429,7.82857143 9.64705882,7.59327731 8.97815126,7.59327731 Z" id="Promociones_Ofertas_2Regular"></path>
        </g>
    </g>
</svg>

<svg width="24" height="24" viewBox="0 0 24 24" xmlns="http://www.w3.org/2000/svg"><path d="M11.782.01c.642 0 1.045.518 1.176.686.232.299.437.669.632 1.025.165.3.464.844.632.968.215-.017.77-.353 1.075-.538.807-.487 1.64-.991 2.37-.568.74.427.716 1.409.7 2.36-.007.35-.02.988.067 1.18.191.087.83.074 1.183.067l.356-.006c.828-.007 1.627.058 2.003.705.424.73-.08 1.563-.568 2.37-.184.306-.52.864-.537 1.075.124.169.668.468.968.632.356.195.726.4 1.025.632.686.535.686 1.019.686 1.177 0 .642-.518 1.045-.686 1.176-.3.232-.669.437-1.025.632-.3.165-.844.464-.968.632.016.215.353.77.537 1.076l.182.303c.417.71.757 1.428.386 2.067-.426.739-1.408.715-2.36.699-.349-.007-.99-.02-1.182.067-.088.191-.074.83-.068 1.183.02.948.04 1.93-.699 2.36-.73.423-1.563-.08-2.37-.565-.305-.185-.863-.521-1.075-.538-.168.125-.467.67-.632.968-.195.357-.4.726-.632 1.026-.534.685-1.019.685-1.176.685-.643 0-1.046-.517-1.177-.685-.232-.3-.437-.67-.632-1.026-.165-.299-.464-.843-.632-.968-.215.017-.77.353-1.075.538-.807.487-1.64.992-2.37.568-.74-.427-.72-1.408-.7-2.36.007-.35.02-.991-.067-1.183-.191-.087-.83-.074-1.183-.067-.948.02-1.93.04-2.36-.7-.416-.729.088-1.562.572-2.369.185-.306.521-.864.538-1.076-.125-.168-.67-.467-.968-.631-.357-.195-.726-.4-1.025-.632-.686-.535-.686-1.019-.686-1.177 0-.642.517-1.045.686-1.176.299-.232.668-.437 1.025-.632.299-.165.843-.464.968-.632-.017-.215-.353-.77-.538-1.076-.487-.807-.992-1.64-.568-2.37.427-.74 1.408-.719 2.36-.699.35.007.988.02 1.18-.067.087-.192.073-.83.067-1.183l-.006-.356c-.008-.829.058-1.627.705-2.004.73-.423 1.563.08 2.37.568.305.185.863.521 1.075.538.168-.124.467-.669.632-.968.195-.356.4-.726.632-1.025C11.139.01 11.624.01 11.782.01zm-.004 1.385c-.185.168-.467.689-.628.981-.41.743-.794 1.446-1.456 1.624-.682.182-1.415-.262-2.124-.69-.27-.16-.74-.446-.982-.513-.064.245-.054.806-.047 1.126.017.86.037 1.67-.457 2.164-.494.495-1.304.474-2.165.458-.319-.007-.88-.02-1.126.047.068.242.353.712.515.981.43.71.87 1.442.689 2.124-.179.663-.881 1.05-1.624 1.456-.292.161-.81.444-.981.629.168.184.689.467.981.628.743.41 1.445.793 1.624 1.456.181.682-.263 1.415-.69 2.124-.16.269-.446.74-.514.981.246.064.807.054 1.126.047.86-.016 1.67-.036 2.165.458.494.494.474 1.304.457 2.164-.007.32-.02.881.047 1.126.242-.067.713-.353.982-.514.598-.363 1.21-.733 1.795-.733.11 0 .222.014.33.044.661.178 1.048.88 1.455 1.624.16.292.447.813.628.981.185-.168.467-.689.629-.981.41-.743.793-1.446 1.455-1.624.683-.181 1.415.262 2.125.69.268.16.74.446.981.513.064-.245.054-.806.047-1.126-.017-.86-.037-1.67.457-2.164.494-.494 1.304-.474 2.165-.458.32.007.88.02 1.126-.047-.067-.242-.353-.712-.514-.981-.43-.71-.87-1.442-.69-2.124.179-.663.881-1.05 1.624-1.456.293-.161.814-.447.982-.628-.168-.185-.69-.468-.982-.63-.743-.41-1.445-.792-1.623-1.455-.182-.682.262-1.415.689-2.124.161-.269.447-.74.514-.981-.245-.064-.807-.054-1.126-.047-.86.016-1.67.037-2.165-.458-.494-.494-.474-1.304-.457-2.164.007-.32.02-.881-.047-1.126-.242.067-.713.353-.981.514-.71.43-1.442.87-2.125.689-.662-.178-1.049-.88-1.455-1.624-.162-.292-.447-.813-.629-.981zm4.484 4.655a.673.673 0 01.114.945L8.24 17.392a.674.674 0 01-1.203-.413c0-.152.05-.297.144-.414l8.138-10.4a.673.673 0 01.944-.115zm-1.687 6.75c1.412 0 2.252.84 2.252 2.252s-.844 2.252-2.252 2.252c-1.409 0-2.252-.84-2.252-2.252s.84-2.252 2.252-2.252zm0 1.348c-.67 0-.908.235-.908.907 0 .673.239.908.908.908s.907-.235.907-.908c0-.672-.238-.907-.907-.907zM8.978 6.245c1.412 0 2.252.84 2.252 2.252s-.84 2.253-2.252 2.253c-1.408 0-2.252-.84-2.252-2.253 0-1.411.84-2.252 2.252-2.252zm0 1.348c-.669 0-.907.239-.907.908s.238.907.907.907c.67 0 .908-.235.908-.907s-.239-.908-.908-.908z" fill="#5CB615" fill-rule="nonzero"/></svg>
